!! 00048] TT[KA
!! NN
!!!OTL: Xiao shanyang (1)
!!!ARE: Guizhou, Liping
!! Ethnic Group: Dong, Zhuang, Yao, Miao u. ander Miderheiten des Suedwesten
!! II, 164
!!!SCT: C0218A
!!!YEM: Copyright 1995, estate of Helmut Schaffrath.
**kern
*ICvox
*Ivox
!! Mixed meters:  2/4; 3/4
*M3/4
*k[]
*C:
{8c
8A
8c
16d
16c
16c
16d
8e
=1
*M2/4
16d
[16c
4c]
8c}
=2
{8.c
16d
8.e
16g
=3
8c
16d
16e
8d
8c
=4
16d
16c
8d
8d
8c
=5
16c
16d
8c
16d
16c
8c}
=6
{8.c
16d
8.e
16g
=7
16d
16e
8d
16e
16d
8e
=8
4d
4c}
==
!!!AGN: Shange? Tong sheng da Shange; Kinderlied
!! Hier gelten gr. u. kl. Sekunde als Konsonanz!
!!    2 Lieder = 2 Dokumente. Das 2. Lied steht im folgenden Dokument unter
!!    gleicher Signatur.  Letzten Takt  x_0_  weggelassen.
!!    Angegeben ist die Oberstimme.
!!!ONB: ESAC (Essen Associative Code) Database: CHINA_091A
!!!AMT: irregular
!!!AIN: vox
!!!EED: Helmut Schaffrath
!!!EEV: 1.0
*-
